X: 424
T: My Darling Don't Leave Me   #2
N: Irish title: na treig mo .muirnin
R: air, waltz
%S: s:3 b:12(4+4+4)
B: O'Neill's 1850 #424
O: Stack
Z: henrik.norbeck@mailbox.swipnet.se
Q: "With feeling"
M: 3/4
L: 1/8
K: G
"^A"[|] dc | B2 (3GAB AG | E2 DE (3GAB | A2 G2 G2 | "^fine"G4 |]
"^B1"| (de/f/) | g2 ef {a}ge | d2 B2 GB | c2 cd e^c | d4 ||
"^B2"| (de/f/) | {a}g2 ef ge | d2 B2 (3GAB | c3 d (e/f/{a}g/e/) | "^->A"d4 |]
